src/assets/images/icon_menu.svg

<svg width="4" height="18" viewBox="0 0 4 18" fill="none" xmlns="http://www.w3.org/2000/svg">
<path d="M1.9375 3.82741C1.5928 3.82741 1.27794 3.7429 0.992898 3.57386C0.70786 3.40152 0.480824 3.17282 0.31179 2.88778C0.142756 2.60275 0.0565815 2.28788 0.0532671 1.94318C0.0532671 1.59517 0.137784 1.2803 0.306818 0.998579C0.475852 0.713542 0.702888 0.486506 0.987926 0.317471C1.27628 0.145123 1.5928 0.0589486 1.9375 0.0589486C2.28551 0.0589486 2.60038 0.145123 2.8821 0.317471C3.16714 0.486506 3.39418 0.713542 3.56321 0.998579C3.73556 1.2803 3.82173 1.59517 3.82173 1.94318C3.82173 2.28788 3.73556 2.60275 3.56321 2.88778C3.39418 3.17282 3.16714 3.40152 2.8821 3.57386C2.60038 3.7429 2.28551 3.82741 1.9375 3.82741ZM1.9375 10.8274C1.5928 10.8274 1.27794 10.7429 0.992898 10.5739C0.70786 10.4015 0.480824 10.1728 0.31179 9.88778C0.142756 9.60275 0.0565815 9.28788 0.0532671 8.94318C0.0532671 8.59517 0.137784 8.2803 0.306818 7.99858C0.475852 7.71354 0.702888 7.48651 0.987926 7.31747C1.27628 7.14512 1.5928 7.05895 1.9375 7.05895C2.28551 7.05895 2.60038 7.14512 2.8821 7.31747C3.16714 7.48651 3.39418 7.71354 3.56321 7.99858C3.73556 8.2803 3.82173 8.59517 3.82173 8.94318C3.82173 9.28788 3.73556 9.60275 3.56321 9.88778C3.39418 10.1728 3.16714 10.4015 2.8821 10.5739C2.60038 10.7429 2.28551 10.8274 1.9375 10.8274ZM1.9375 17.8274C1.5928 17.8274 1.27794 17.7429 0.992898 17.5739C0.70786 17.4015 0.480824 17.1728 0.31179 16.8878C0.142756 16.6027 0.0565815 16.2879 0.0532671 15.9432C0.0532671 15.5952 0.137784 15.2803 0.306818 14.9986C0.475852 14.7135 0.702888 14.4865 0.987926 14.3175C1.27628 14.1451 1.5928 14.0589 1.9375 14.0589C2.28551 14.0589 2.60038 14.1451 2.8821 14.3175C3.16714 14.4865 3.39418 14.7135 3.56321 14.9986C3.73556 15.2803 3.82173 15.5952 3.82173 15.9432C3.82173 16.2879 3.73556 16.6027 3.56321 16.8878C3.39418 17.1728 3.16714 17.4015 2.8821 17.5739C2.60038 17.7429 2.28551 17.8274 1.9375 17.8274Z" fill="white"/>
</svg>

<svg xmlns="http://www.w3.org/2000/svg" width="4" height="18" fill="none"><path fill="#fff" d="M1.938 3.827q-.518 0-.945-.253a1.96 1.96 0 0 1-.681-.686 1.85 1.85 0 0 1-.259-.945A1.8 1.8 0 0 1 .307 1Q.56.572.987.317q.435-.258.95-.258.523 0 .945.258.428.255.681.682.26.422.259.944 0 .518-.259.945a1.96 1.96 0 0 1-.68.686 1.8 1.8 0 0 1-.945.253m0 7q-.518 0-.945-.253a1.96 1.96 0 0 1-.681-.686 1.85 1.85 0 0 1-.259-.945A1.8 1.8 0 0 1 .307 8q.254-.427.68-.682.435-.258.95-.258.523 0 .945.258.428.255.681.682.26.422.259.944 0 .518-.259.945a1.96 1.96 0 0 1-.68.686 1.8 1.8 0 0 1-.945.253m0 7q-.518 0-.945-.253a1.96 1.96 0 0 1-.681-.686 1.85 1.85 0 0 1-.259-.945A1.8 1.8 0 0 1 .307 15q.254-.429.68-.681.435-.26.95-.26.523 0 .945.26.428.253.681.68.26.423.259.945 0 .517-.259.945a1.96 1.96 0 0 1-.68.686 1.8 1.8 0 0 1-.945.253"/></svg>
